X:19
T:Lady Harriot Hay's Strathspey
S:Petrie's Third Collection of Strathspey Reels and Country Dances &c.
Z:Steve Wyrick , 7/30/05
N:Petrie's Third Collection, page 8
L:1/8
M:C
R:Strathspey
K:Bb
F|:B/B/B B2 B>df<d|B/B/B B2 A/B/c/B/ AF|B/B/B B2 B>df<d|e<gd<f c>BAF:|
|:f>B e/d/c/B/ fB e/d/c/B/ A<c A<F|f>B e/d/c/B/ fBAF:|
